svg/fluentui-system-icons/ic_fluent_image_add_20_regular.svg

<svg width="20" height="20" viewBox="0 0 20 20" fill="none" xmlns="http://www.w3.org/2000/svg">
<path d="M10 5.5C10 7.98528 7.98528 10 5.5 10C3.01472 10 1 7.98528 1 5.5C1 3.01472 3.01472 1 5.5 1C7.98528 1 10 3.01472 10 5.5ZM6 3.5C6 3.22386 5.77614 3 5.5 3C5.22386 3 5 3.22386 5 3.5V5H3.5C3.22386 5 3 5.22386 3 5.5C3 5.77614 3.22386 6 3.5 6H5L5 7.5C5 7.77614 5.22386 8 5.5 8C5.77614 8 6 7.77614 6 7.5V6H7.5C7.77614 6 8 5.77614 8 5.5C8 5.22386 7.77614 5 7.5 5H6V3.5ZM14 4H10.793C10.6944 3.65136 10.5622 3.31679 10.4003 3H14C15.6569 3 17 4.34315 17 6V14C17 15.6569 15.6569 17 14 17H6C4.34315 17 3 15.6569 3 14V10.4003C3.31679 10.5622 3.65136 10.6944 4 10.793V14C4 14.3726 4.10191 14.7215 4.27937 15.0201L8.94868 10.432C9.53227 9.85859 10.4677 9.85859 11.0513 10.432L15.7206 15.0201C15.8981 14.7215 16 14.3726 16 14V6C16 4.89543 15.1046 4 14 4ZM14 7.5C14 8.32843 13.3284 9 12.5 9C11.6716 9 11 8.32843 11 7.5C11 6.67157 11.6716 6 12.5 6C13.3284 6 14 6.67157 14 7.5ZM13 7.5C13 7.22386 12.7761 7 12.5 7C12.2239 7 12 7.22386 12 7.5C12 7.77614 12.2239 8 12.5 8C12.7761 8 13 7.77614 13 7.5ZM4.98824 15.7256C5.28505 15.9 5.63085 16 6 16H14C14.3692 16 14.7149 15.9 15.0118 15.7256L10.3504 11.1453C10.1559 10.9542 9.84409 10.9542 9.64956 11.1453L4.98824 15.7256Z" fill="#212121"/>
</svg>

<svg xmlns="http://www.w3.org/2000/svg" width="20" height="20"><path d="M10 5.5a4.5 4.5 0 1 1-9 0 4.5 4.5 0 0 1 9 0Zm-4-2a.5.5 0 0 0-1 0V5H3.5a.5.5 0 0 0 0 1H5v1.5a.5.5 0 0 0 1 0V6h1.5a.5.5 0 0 0 0-1H6V3.5Zm8 .5h-3.207a5.466 5.466 0 0 0-.393-1H14a3 3 0 0 1 3 3v8a3 3 0 0 1-3 3H6a3 3 0 0 1-3-3v-3.6c.317.162.651.294 1 .393V14c0 .373.102.722.28 1.02l4.669-4.588a1.5 1.5 0 0 1 2.102 0l4.67 4.588A1.99 1.99 0 0 0 16 14V6a2 2 0 0 0-2-2Zm0 3.5a1.5 1.5 0 1 1-3 0 1.5 1.5 0 0 1 3 0Zm-1 0a.5.5 0 1 0-1 0 .5.5 0 0 0 1 0Zm-8.012 8.226A1.99 1.99 0 0 0 6 16h8c.37 0 .715-.1 1.012-.274l-4.662-4.58a.5.5 0 0 0-.7 0l-4.662 4.58Z"/></svg>
